icons/svg/seat-recline-normal.svg

﻿<?xml version="1.0" encoding="utf-8"?>
<!DOCTYPE svg PUBLIC "-//W3C//DTD SVG 1.1//EN" "http://www.w3.org/Graphics/SVG/1.1/DTD/svg11.dtd">
<svg xmlns="http://www.w3.org/2000/svg" xmlns:xlink="http://www.w3.org/1999/xlink" version="1.1" baseProfile="full" width="24" height="24" viewBox="0 0 24.00 24.00" enable-background="new 0 0 24.00 24.00" xml:space="preserve">
	<path fill="#000000" fill-opacity="1" stroke-width="0.2" stroke-linejoin="round" d="M 7.5875,5.41C 6.81125,4.62875 6.81125,3.35875 7.5875,2.5775C 8.36875,1.80125 9.63875,1.80125 10.42,2.5775C 11.2013,3.35875 11.2013,4.62875 10.42,5.41C 9.62875,6.20125 8.36875,6.20125 7.5875,5.41 Z M 6.00125,16.0012L 6.00125,7.0025L 3.99875,7.0025L 3.99875,16.0012C 3.99875,18.76 6.24,21.0012 8.99875,21.0012L 15,21.0012L 15,18.9988L 8.99875,18.9988C 7.33875,18.9988 6.00125,17.6613 6.00125,16.0012 Z M 20,20.0688L 14.9312,15L 11.4987,15L 11.4987,11.3187C 12.9,12.4712 15.0975,13.4812 17.0025,13.4812L 17.0025,11.3187C 15.3413,11.3375 13.3888,10.4488 12.3287,9.2825L 10.9275,7.73C 10.7425,7.52 10.4975,7.34875 10.2388,7.23125C 9.95125,7.09 9.61875,7.0025 9.2825,7.0025L 9.2475,7.0025C 8.0075,7.0025 7.0025,8.0075 7.0025,9.2475L 7.0025,15C 7.0025,16.66 8.34,17.9975 10,17.9975L 15.0688,17.9975L 18.5688,21.4988"/>
</svg>

<svg xmlns="http://www.w3.org/2000/svg" version="1.1" baseProfile="full" width="24" height="24" viewBox="0 0 24.00 24.00" xml:space="preserve"><path fill="#000" fill-opacity="1" stroke-width=".2" stroke-linejoin="round" d="M7.588 5.41c-.777-.78-.777-2.05 0-2.833.78-.776 2.05-.776 2.832 0 .78.782.78 2.052 0 2.833-.79.79-2.05.79-2.832 0zM6 16V7.004H4V16c0 2.76 2.24 5 5 5h6v-2H9c-1.66 0-3-1.34-3-3zm14 4.07L14.93 15H11.5v-3.68c1.4 1.15 3.598 2.16 5.503 2.16v-2.16c-1.662.018-3.614-.87-4.674-2.037L10.927 7.73c-.186-.21-.43-.38-.69-.5-.287-.14-.62-.228-.955-.228h-.035c-1.24 0-2.245 1.006-2.245 2.246V15c0 1.66 1.337 2.997 2.997 2.997h5.07l3.5 3.502"/></svg>
